X:1
T:Der Wanderer
T:Satz v. Friedrich Silcher
T:Schäbisches Volkslied
T:Der Wanderer
T:Ein Sträußchen am Hute
T:CPDL - Creative Commons Attribution Non Commercial 3.0
C:Friedrich Silcher
Z:CPDL - Creative Commons Attribution Non Commercial 3.0
%%score [ ( 1 2 ) ( 3 4 ) ]
L:1/8
Q:1/4=90
M:3/8
K:Bb
V:1 treble-8 nm="Tenor"
V:2 treble-8 
V:3 bass nm="Bass"
V:4 bass 
V:1
"^Ziemlich bewegt" F | d>cB | BFF | Fcc | c2 F | e>dc | cFF | (BB)c | d2 B/c/ | ddd | !>!ed B/c/ | %11
w: 1.~Ein|Sträuß- chen am|Hu- te, den|Stab in der|Hand, muss|zie- hen der|Wan- drer von|Lan- de zu|Land; er _|zieht vie- le|Stra- ßen, er _|
w: 2.~So|lieb- li- che|Blu- men am|We- ge da|stehn, muss|lei- der der|Wan- drer vor-|ü- * ber-|gehn; sie _|blü- hen so|herr- lich, sie _|
w: 3.~Wohl|sieht er ein|Häus- chen am|We- ge da|stehn, um-|krän- zet von|Blu- men und|Trau- ben so|schön; hier _|könnt's ihm ge-|fal- len, er _|
 ddd | edc | deg | gf(f/f/) | fee | fdd | cd e/g/ | gf(f/f/) | f"^dim."ee | !fermata!d2 |] %21
w: sieht man- chen|Ort, _ doch|fort muss er|wie- der, an e'n|an- de- ren|Ort, _ doch|fort muss er _|wie- der, an e'n|an- de- ren|Ort.|
w: win- ken ihm|hin, _ doch|fort muss er|wie- der, muss *|wei- ter noch|ziehn, * doch|fort muss er _|wie- der, muss *|wei- ter noch|ziehn.|
w: wünscht, es wär|sein, _ doch|fort muss er|wie- der, die _|Welt aus und|ein, _ doch|fort muss er _|wie- der, die _|Welt aus und|ein.|
V:2
 F | F>FF | FFF | FAA | A2 F | c>BA | AFF | (FF)A | B2 F | BBB | cBF | BBB | cBA | Bce | ed(d/d/) | %15
 dcc | dBB | AB c/e/ | ed(d/d/) | dcc | B2 |] %21
V:3
 F, | F,>E,D, | D,F,D, | F,F,F, | F,2 F, | A,>B,F, | F,F,F, | (F,F,)F, | F,2 D,/E,/ | F,F,F, | %10
w: ||||||||||
 !>!F,F, D,/E,/ | F,F,F, | F,2 z | z2 C | B,B,(B,/B,/) | A,A,A, | B,F, z | z2 C | B,B,(B,/B,/) | %19
w: |||fort|muss er an e'n|||fort|muss er an e'n|
 A,"^dim."A,A, | !fermata!F,2 |] %21
w: ||
V:4
 F, | B,,>B,,B,, | B,,D,B,, | F,,F,F, | F,2 F, | F,>F,F, | F,F,E, | (D,D,)F, | B,,2 B,, | %9
 B,,B,,B,, | A,,B,,B,, | B,,B,,B,, | A,,B,, x | x2 A, | B,B,(B,,/D,/) | F,F,F, | B,,2 x | x2 A, | %18
 B,B,(B,,/D,/) | F,F,F, | B,,2 |] %21

